symbols/web/rotate_90_degrees_ccw/materialsymbolsrounded/rotate_90_degrees_ccw_wght300gradN25fill1_40px.svg

<svg xmlns="http://www.w3.org/2000/svg" height="40" width="40"><path d="M20.917 36.25q-2.125 0-3.979-.458-1.855-.459-3.396-1.459-.375-.25-.417-.729-.042-.479.292-.854.25-.25.604-.271.354-.021.646.146 1.291.833 2.875 1.25 1.583.417 3.375.417 5.208 0 8.875-3.73 3.666-3.729 3.666-8.854 0-5.083-3.687-8.833-3.688-3.75-8.896-3.75h-1.917l2.625 2.625q.292.333.292.708 0 .375-.292.667-.291.333-.687.333-.396 0-.688-.291L16.042 9q-.167-.167-.271-.417-.104-.25-.104-.458 0-.25.104-.458.104-.209.271-.417l4.166-4.167q.292-.291.688-.291.396 0 .687.291.292.334.313.709.021.375-.313.708l-2.625 2.625h1.917q3 0 5.646 1.187 2.646 1.188 4.625 3.167 1.979 1.979 3.146 4.625 1.166 2.646 1.166 5.604 0 5.959-4.229 10.25Q27 36.25 20.917 36.25Zm-9.75-6.792q-.25 0-.459-.104-.208-.104-.416-.271L3.75 22.542q-.167-.167-.25-.396-.083-.229-.083-.438 0-.291.083-.5.083-.208.25-.375l6.542-6.541q.208-.167.416-.271.209-.104.459-.104t.458.104q.208.104.417.271l6.5 6.541q.208.167.312.375.104.209.104.5 0 .25-.104.459-.104.208-.312.375l-6.5 6.541q-.209.167-.417.271-.208.104-.458.104Z"/></svg>

<svg xmlns="http://www.w3.org/2000/svg" height="40" width="40"><path d="M20.917 36.25Q18.792 36.25 16.938 35.792Q15.083 35.333 13.542 34.333Q13.167 34.083 13.125 33.604Q13.083 33.125 13.417 32.75Q13.667 32.5 14.021 32.479Q14.375 32.458 14.667 32.625Q15.958 33.458 17.542 33.875Q19.125 34.292 20.917 34.292Q26.125 34.292 29.792 30.562Q33.458 26.833 33.458 21.708Q33.458 16.625 29.771 12.875Q26.083 9.125 20.875 9.125H18.958L21.583 11.75Q21.875 12.083 21.875 12.458Q21.875 12.833 21.583 13.125Q21.292 13.458 20.896 13.458Q20.5 13.458 20.208 13.167L16.042 9Q15.875 8.833 15.771 8.583Q15.667 8.333 15.667 8.125Q15.667 7.875 15.771 7.667Q15.875 7.458 16.042 7.25L20.208 3.083Q20.5 2.792 20.896 2.792Q21.292 2.792 21.583 3.083Q21.875 3.417 21.896 3.792Q21.917 4.167 21.583 4.5L18.958 7.125H20.875Q23.875 7.125 26.521 8.312Q29.167 9.5 31.146 11.479Q33.125 13.458 34.292 16.104Q35.458 18.75 35.458 21.708Q35.458 27.667 31.229 31.958Q27 36.25 20.917 36.25ZM11.167 29.458Q10.917 29.458 10.708 29.354Q10.5 29.25 10.292 29.083L3.75 22.542Q3.583 22.375 3.5 22.146Q3.417 21.917 3.417 21.708Q3.417 21.417 3.5 21.208Q3.583 21 3.75 20.833L10.292 14.292Q10.5 14.125 10.708 14.021Q10.917 13.917 11.167 13.917Q11.417 13.917 11.625 14.021Q11.833 14.125 12.042 14.292L18.542 20.833Q18.75 21 18.854 21.208Q18.958 21.417 18.958 21.708Q18.958 21.958 18.854 22.167Q18.75 22.375 18.542 22.542L12.042 29.083Q11.833 29.25 11.625 29.354Q11.417 29.458 11.167 29.458Z"/></svg>
